public/svg/some-grass.svg

<svg width="214" height="170" viewBox="0 0 214 170" fill="none" xmlns="http://www.w3.org/2000/svg">
<path d="M134.416 91.1862C140.238 84.9573 145.331 77.8843 151.88 72.2957C156.382 68.1082 161.791 65.0198 167.686 63.2725C175.021 61.4388 179.066 64.2331 180.027 71.6845C180.784 78.2622 180.058 84.9259 177.902 91.1862C174.7 101.083 168.966 109.524 163.552 118.227C158.443 125.513 152.933 132.509 147.049 139.184C146.38 139.427 145.773 139.813 145.27 140.316C144.767 140.819 144.381 141.426 144.138 142.095L143.381 142.91C143.672 142.91 144.021 142.91 144.225 142.91C144.429 142.91 144.458 142.298 143.963 142.036C146.03 143.375 147.573 142.036 149.202 141.047C161.629 137.178 174.527 135.033 187.537 134.672C193.931 134.44 200.332 134.889 206.631 136.011C208.521 136.207 210.317 136.934 211.812 138.107C214.723 140.843 214.723 143.375 211.637 145.733C208.058 148.471 204.251 150.895 200.256 152.981C181.657 162.179 162.417 169.193 141.344 169.805C131.405 170.491 121.424 169.366 111.887 166.486C109.939 165.723 107.797 165.6 105.775 166.137C100.691 167.363 95.3764 167.253 90.3479 165.817C88.354 165.175 86.2468 164.963 84.1649 165.194C82.083 165.424 80.0735 166.093 78.2684 167.156C75.5726 168.571 72.5806 169.329 69.5363 169.368C52.2872 170.785 34.9954 167.198 19.734 159.035C2.76459 149.837 -11.7016 137.408 -25.7313 124.485C-26.7622 123.691 -27.4973 122.574 -27.8192 121.313C-28.141 120.052 -28.031 118.719 -27.5068 117.528C-26.3425 114.326 -23.7229 114.326 -21.045 114.617C-4.6051 116.849 11.4904 121.132 26.8653 127.366C33.2397 129.811 39.4687 132.751 45.7558 135.429C46.3671 136.186 47.1529 136.71 47.9679 135.924C48.7829 135.138 47.9679 134.73 47.5022 134.265C38.2687 122.876 29.975 110.757 22.703 98.0264C16.3261 86.924 12.0627 74.7357 10.1287 62.0791C9.87341 59.4949 9.87341 56.8918 10.1287 54.3075C11.2639 38.0658 28.4662 33.4668 38.5081 38.3277C43.5967 40.8868 48.1353 44.4169 51.8683 48.719C55.8124 53.1394 59.3945 57.87 62.5797 62.865C63.9478 64.9607 65.4904 66.9691 66.8585 68.9193C69.5072 67.7259 68.5467 66.0086 68.372 64.495C66.7314 53.0056 66.0112 41.4035 66.2181 29.7993C66.3775 25.5381 66.864 21.2953 67.6735 17.1086C68.3214 13.3608 69.7494 9.79087 71.8649 6.63007C78.0938 -2.56778 88.8052 -2.10207 94.0154 7.44507C99.2523 18.0826 102.301 29.6631 102.98 41.5004C103.825 49.9706 104.145 58.499 104.785 66.9982C104.476 69.1374 104.997 71.3138 106.24 73.0816C107.511 70.6241 108.301 67.947 108.569 65.1936C111.326 50.7606 116.692 36.9514 124.403 24.4436C126.928 20.4154 130.625 17.2564 134.998 15.3913C140.005 13.3247 142.944 14.4599 145.448 19.3208C146.822 22.3804 147.555 25.6889 147.602 29.0426C148.533 41.0929 145.622 52.5902 142.042 63.9711C139.859 70.9277 138.433 78.1463 134.824 84.6371C134.33 86.2075 134.133 87.8557 134.241 89.498C133.88 89.7424 133.585 90.0722 133.382 90.4581C133.179 90.844 133.074 91.2741 133.077 91.7102C133.077 92.2923 133.456 92.6125 133.776 92.3505C134.068 92.011 134.286 91.6145 134.416 91.1862ZM102.165 161.043C104.517 161.441 106.926 161.33 109.231 160.717C111.535 160.105 113.682 159.005 115.526 157.492C119.602 154.239 124.083 151.529 128.857 149.43C133.161 147.362 137.095 144.598 140.499 141.25C151.707 130.339 160.891 117.528 167.627 103.411C171.469 95.6059 173.262 86.9518 172.837 78.2627C172.829 75.8849 172.323 73.5352 171.353 71.3643C170.789 69.9104 169.693 68.7254 168.288 68.0497C166.883 67.374 165.273 67.2583 163.785 67.7259C161.477 68.2481 159.336 69.3387 157.556 70.8986C153.44 74.4675 149.678 78.425 146.321 82.7161C140.034 90.4295 134.445 98.6668 128.857 106.933C127.227 109.378 125.655 111.998 121.551 112.143C124.869 102.276 128.071 92.9618 131.156 83.5893C134.486 74.4847 137.209 65.1694 139.306 55.7047C141.14 45.8956 142.653 36.0283 139.859 26.1609C139.044 23.2502 138.142 19.5536 134.736 19.1461C131.826 18.7968 131.098 22.377 129.555 24.3563C128.864 25.2798 128.241 26.2526 127.692 27.267C119.591 42.5877 114.185 59.188 111.713 76.3416C110.17 85.423 108.802 94.5627 107.55 103.702C107.23 105.769 106.328 107.719 104.261 107.719C101.35 107.719 102.66 104.983 102.253 103.411C102.039 102.25 101.951 101.069 101.991 99.8893C101.416 81.3897 99.9003 62.9313 97.45 44.5858C96.156 34.0189 93.2811 23.7065 88.9217 13.9942C87.544 10.7452 85.5694 7.78336 83.1002 5.26204C81.1792 3.39918 79.4327 3.39918 77.9483 5.87328C75.5964 9.99341 74.0273 14.5132 73.3203 19.2043C71.544 30.6865 71.2993 42.3535 72.5926 53.9C74.2966 72.2548 78.3564 90.3138 84.672 107.632C85.7781 110.746 86.5931 113.977 87.5827 117.15C87.8156 118.023 87.7865 119.216 86.7095 119.478C86.2581 119.566 85.7936 119.563 85.3436 119.468C84.8936 119.373 84.4673 119.188 84.0899 118.925C83.2067 118.139 82.5445 117.136 82.1688 116.015C79.2318 108.522 75.7691 101.247 71.8067 94.2425C66.0233 81.7813 59.0642 69.9003 51.0242 58.7609C46.8301 52.6633 41.4191 47.5 35.1317 43.5961C23.1105 36.9306 17.8421 39.5502 16.5031 53.4925C16.1147 60.6153 17.2458 67.7393 19.8214 74.3914C30.2126 105.187 49.3942 129.695 73.8733 150.332C74.6917 151.328 75.7379 152.112 76.9233 152.619C78.1088 153.126 79.3988 153.34 80.6843 153.243C72.8519 143.582 65.7865 133.325 59.5526 122.564C55.1894 115.248 51.413 107.598 48.259 99.6855C47.706 98.2884 46.5999 96.7748 48.6956 95.2612C51.6063 95.8143 52.7124 98.3466 54.0513 100.442C58.1845 107.05 62.0558 113.861 66.2181 120.439C73.2711 131.692 81.5386 142.136 90.8718 151.584C91.8615 152.573 92.7638 154.494 95.3834 153.039C89.9986 133.1 90.9592 112.9 93.9863 92.6416C97.3336 110.426 97.3336 128.531 99.9824 147.945C103.411 140.946 106.358 133.72 108.802 126.319C111.101 119.74 112.033 112.609 116.603 106.904C115.671 122.04 110.781 136.186 105.891 151.06C108.929 149.746 111.679 147.847 113.983 145.471C119.926 140.01 125.516 134.176 130.719 128.007C132.437 126.057 134.212 124.165 136.104 122.36C136.291 122.13 136.524 121.941 136.788 121.806C137.052 121.671 137.341 121.592 137.637 121.576C137.933 121.56 138.23 121.605 138.507 121.71C138.784 121.815 139.037 121.977 139.248 122.185C140.208 123.059 139.568 123.903 139.248 124.747C139.034 125.424 138.731 126.071 138.346 126.668C128.915 140.843 117.854 153.214 102.165 161.189V161.043ZM-18.1343 121.574L-18.9784 122.855C-18.047 123.815 -17.1447 124.834 -16.0677 125.766C-7.62665 133.828 1.74584 140.727 10.8273 148.062C25.3808 159.704 42.1756 163.197 59.8437 164.827C62.7544 165.089 65.6651 164.827 68.5758 164.827C59.3779 161.305 50.1801 158.482 41.3897 154.611C32.5994 150.739 23.3433 147.334 15.368 141.629C20.9565 140.959 25.6719 143.346 30.4746 145.151C35.2772 146.955 39.6433 148.964 44.2713 150.769C48.8994 152.573 53.9349 154.582 58.8249 156.095C63.6994 158.021 68.894 159.009 74.1352 159.006C47.1525 138.725 15.3516 125.824 -18.1343 121.574ZM210.065 141.25C185.092 133.828 139.801 142.822 124.025 158.191C141.198 156.037 157.207 151.729 173.711 150.419C157.964 157.987 140.529 159.53 123.996 164.129C155.373 168.291 182.734 157.55 210.065 141.25ZM68.1974 69.647C68.0519 69.7925 67.7317 69.9672 67.7608 70.0836C67.8601 70.4088 67.9969 70.7213 68.1683 71.015C68.3138 70.8695 68.634 70.6657 68.6049 70.5493C68.5032 70.2342 68.3666 69.9316 68.1974 69.647Z" fill="#3A3C51"/>
</svg>

<svg xmlns="http://www.w3.org/2000/svg" width="214" height="170" fill="none" xmlns:v="https://vecta.io/nano"><path d="M134.416 91.186c5.822-6.23 10.915-13.302 17.464-18.89 4.502-4.187 9.91-7.276 15.806-9.023 7.335-1.834 11.38.96 12.34 8.412.757 6.578.03 13.24-2.125 19.502-3.202 9.897-8.936 18.338-14.35 27.04a240.52 240.52 0 0 1-16.503 20.957 4.86 4.86 0 0 0-2.911 2.911l-.757.815h.844c.204 0 .233-.612-.262-.874 2.067 1.34 3.6 0 5.24-.99 12.427-3.87 25.325-6.014 38.335-6.375a90.23 90.23 0 0 1 19.094 1.339 10.08 10.08 0 0 1 5.181 2.096c2.91 2.736 2.91 5.268-.175 7.626a78.61 78.61 0 0 1-11.381 7.248c-18.6 9.198-37.84 16.212-58.912 16.824-9.94.686-19.92-.44-29.457-3.32a9.84 9.84 0 0 0-6.112-.349c-5.084 1.226-10.4 1.116-15.427-.32-1.994-.642-4.1-.854-6.183-.623a14.83 14.83 0 0 0-5.897 1.962 19.32 19.32 0 0 1-8.732 2.212c-17.25 1.417-34.54-2.17-49.802-10.333-16.97-9.198-31.436-21.627-45.465-34.55a5.82 5.82 0 0 1-2.088-3.172c-.322-1.26-.212-2.594.312-3.785 1.164-3.202 3.784-3.202 6.462-2.91 16.44 2.232 32.535 6.515 47.9 12.75 6.374 2.445 12.603 5.385 18.89 8.063.61.757 1.397 1.28 2.212.495s0-1.194-.466-1.66c-9.233-11.39-17.527-23.508-24.8-36.24a103.59 103.59 0 0 1-12.574-35.947c-.255-2.584-.255-5.187 0-7.772 1.135-16.242 18.338-20.84 28.38-15.98a43.66 43.66 0 0 1 13.36 10.391A110.43 110.43 0 0 1 62.58 62.865c1.368 2.096 2.91 4.104 4.28 6.054 2.65-1.193 1.688-2.91 1.513-4.424-1.64-11.49-2.36-23.092-2.154-34.696.16-4.26.646-8.504 1.455-12.69.648-3.748 2.076-7.318 4.19-10.48 6.23-9.198 16.94-8.732 22.15.815A88.59 88.59 0 0 1 102.98 41.5c.845 8.47 1.165 17 1.805 25.498a8.47 8.47 0 0 0 1.455 6.083 21.76 21.76 0 0 0 2.329-7.888c2.757-14.433 8.123-28.242 15.834-40.75 2.525-4.028 6.222-7.187 10.595-9.052 5.007-2.067 7.946-.93 10.45 3.93a24.57 24.57 0 0 1 2.154 9.722c.93 12.05-1.98 23.548-5.56 34.93-2.183 6.957-3.61 14.175-7.218 20.666a13.29 13.29 0 0 0-.583 4.861 2.65 2.65 0 0 0-1.164 2.212c0 .582.38.902.7.64a3.22 3.22 0 0 0 .64-1.164zm-32.25 69.857a16.67 16.67 0 0 0 7.066-.326c2.304-.612 4.45-1.712 6.295-3.225a60.24 60.24 0 0 1 13.331-8.062 43.42 43.42 0 0 0 11.642-8.18 132.35 132.35 0 0 0 27.128-37.839 51.27 51.27 0 0 0 5.21-25.148 17.05 17.05 0 0 0-1.484-6.898c-.564-1.454-1.66-2.64-3.065-3.315a6.14 6.14 0 0 0-4.503-.324 14.21 14.21 0 0 0-6.229 3.173 84.79 84.79 0 0 0-11.235 11.817c-6.287 7.713-11.876 15.95-17.464 24.217-1.63 2.445-3.202 5.065-7.306 5.2l9.605-28.554c3.33-9.105 6.053-18.42 8.15-27.885 1.834-9.81 3.347-19.676.553-29.544-.815-2.91-1.717-6.607-5.123-7.015-2.9-.35-3.638 3.23-5.18 5.2-.69.924-1.314 1.896-1.863 2.91-8.1 15.32-13.507 31.92-15.98 49.075-1.543 9.08-2.91 18.22-4.163 27.36-.32 2.067-1.222 4.017-3.29 4.017-2.91 0-1.6-2.736-2.008-4.308a16.37 16.37 0 0 1-.262-3.522 545.82 545.82 0 0 0-4.541-55.304 106.24 106.24 0 0 0-8.528-30.592c-1.378-3.25-3.352-6.21-5.82-8.732-1.92-1.863-3.668-1.863-5.152.61a38.45 38.45 0 0 0-4.628 13.331c-1.776 11.482-2.02 23.15-.728 34.696a214.78 214.78 0 0 0 12.079 53.732c1.106 3.114 1.92 6.345 2.91 9.518.233.873.204 2.066-.873 2.328-.45.088-.916.085-1.366-.01s-.876-.28-1.254-.543a6.78 6.78 0 0 1-1.921-2.91c-2.937-7.493-6.4-14.768-10.362-21.772C66.023 81.78 59.064 69.9 51.024 58.76 46.83 52.663 41.42 47.5 35.132 43.596c-12.02-6.666-17.3-4.046-18.63 9.896-.388 7.123.743 14.247 3.318 20.9 10.39 30.796 29.573 55.304 54.052 75.94a8.04 8.04 0 0 0 3.05 2.287 8.03 8.03 0 0 0 3.761.624 238.76 238.76 0 0 1-21.132-30.679c-4.363-7.316-8.14-14.966-11.294-22.878-.553-1.397-1.66-2.91.437-4.424 2.91.553 4.017 3.085 5.356 5.18l12.167 19.997c7.053 11.253 15.32 21.697 24.654 31.145 1 .99 1.892 2.9 4.512 1.455C90 133.1 90.96 112.9 93.986 92.642c3.347 17.784 3.347 35.89 5.996 55.303 3.43-7 6.376-14.225 8.82-21.626 2.3-6.58 3.23-13.7 7.8-19.415-.932 15.136-5.822 29.282-10.712 44.156 3.038-1.314 5.788-3.213 8.092-5.59 5.943-5.46 11.533-11.295 16.736-17.464 1.718-1.95 3.493-3.842 5.385-5.647.187-.23.42-.42.684-.554s.553-.214.85-.23a2.13 2.13 0 0 1 .87.134c.277.105.53.267.74.475.96.874.32 1.718 0 2.562a7.99 7.99 0 0 1-.902 1.921c-9.43 14.175-20.492 26.546-36.18 34.52v-.146zm-120.3-39.47l-.844 1.28c.93.96 1.834 1.98 2.91 2.91 8.44 8.062 17.814 14.96 26.895 22.296 14.554 11.642 31.348 15.135 49.016 16.765 2.91.262 5.82 0 8.732 0-9.198-3.522-18.396-6.345-27.186-10.216s-18.046-7.277-26.022-12.982c5.588-.67 10.304 1.717 15.107 3.522s9.17 3.813 13.797 5.618 9.664 3.813 14.554 5.326a41.6 41.6 0 0 0 15.31 2.911 194.28 194.28 0 0 0-92.269-37.432zm228.2 19.676c-24.973-7.422-70.264 1.572-86.04 16.94 17.173-2.154 33.182-6.462 49.686-7.772-15.747 7.568-33.182 9.11-49.715 13.7 31.377 4.162 58.738-6.58 86.07-22.88zM68.197 69.647c-.145.145-.466.32-.437.437.1.325.236.638.407.93.145-.145.466-.35.437-.466-.102-.315-.238-.618-.407-.902z" fill="#3a3c51"/></svg>
